;FLAVOR:Marlin
;TIME:4734
;Filament used: 2.41653m
;Layer height: 0.2
;MINX:73.587
;MINY:81.689
;MINZ:0.2
;MAXX:146.413
;MAXY:138.31
;MAXZ:7.4
;TARGET_MACHINE.NAME:Creality Ender-3 Pro
;Generated with Cura_SteamEngine 5.9.0
M82 ;absolute extrusion mode
; Ender 3 Custom Start G-code
G92 E0 ; Reset Extruder
M190 S60.0 ; Start heating the bed, wait until target temperature reached
G28 ; Home all axes
G29 ; ABL
G1 Z5.0 F3000 ; Move Z Axis up a bit during heating to not damage bed
M104 S175 ; Start heating up the nozzle most of the way
M109 S200.0 ; Finish heating the nozzle
G1 Z2.0 F3000 ; Move Z Axis up little to prevent scratching of Heat Bed
G1 X0.1 Y20 Z0.3 F5000.0 ; Move to start position
G1 X0.1 Y200.0 Z0.3 F1500.0 E15 ; Draw the first line
G1 X0.4 Y200.0 Z0.3 F5000.0 ; Move to side a little
G1 X0.4 Y20 Z0.3 F1500.0 E30 ; Draw the second line
G92 E0 ; Reset Extruder
G1 Z2.0 F3000 ; Move Z Axis up little to prevent scratching of Heat Bed
G1 X5 Y20 Z0.3 F5000.0 ; Move over to prevent blob squish
G92 E0
G92 E0
G1 F1500 E-6.5
;LAYER_COUNT:37
;LAYER:0
M107
G0 F6000 X80.535 Y138.31 Z0.2
;TYPE:SKIRT
G1 F1500 E0
G1 F1200 X78.639 Y137.844 E0.06494
G1 X76.611 Y136.791 E0.14094
G1 X75.152 Y135.23 E0.21201
G1 X73.945 Y133.207 E0.29036
G1 X73.663 Y131.489 E0.34826
G1 X73.587 Y89.171 E1.75577
G1 X73.944 Y87.472 E1.81351
G1 X74.749 Y85.832 E1.87427
G1 X75.657 Y84.416 E1.93022
G1 X77.295 Y83.113 E1.99984
G1 X78.485 Y82.366 E2.04657
G1 X80.809 Y81.689 E2.12708
G1 X139.102 Y81.741 E4.06591
G1 X140.289 Y81.919 E4.10583
G1 X142.46 Y82.87 E4.18466
G1 X143.882 Y84.04 E4.24591
G1 X144.813 Y84.998 E4.29034
G1 X145.859 Y86.941 E4.36374
G1 X146.413 Y88.812 E4.42864
G1 X146.412 Y131.363 E5.84389
G1 X145.946 Y133.259 E5.90883
G1 X144.893 Y135.287 E5.98483
G1 X143.332 Y136.746 E6.0559
G1 X141.309 Y137.953 E6.13425
G1 X139.591 Y138.235 E6.19215
G1 X80.535 Y138.31 E8.15636
G0 F6000 X80.581 Y137.91
G1 F1200 X78.782 Y137.468 E8.21798
G1 X76.856 Y136.468 E8.29016
G1 X75.476 Y134.991 E8.35739
G1 X74.328 Y133.067 E8.43191
G1 X74.058 Y131.424 E8.48729
G1 X73.987 Y89.21 E9.89133
G1 X74.324 Y87.604 E9.94591
G1 X75.086 Y86.048 E10.00354
G1 X75.958 Y84.689 E10.05724
G1 X77.508 Y83.452 E10.1232
G1 X78.652 Y82.734 E10.16812
G1 X80.866 Y82.089 E10.24482
G1 X139.043 Y82.137 E12.1798
G1 X140.179 Y82.307 E12.218
G1 X142.248 Y83.214 E12.29314
G1 X143.595 Y84.319 E12.35109
G1 X144.488 Y85.238 E12.39371
G1 X145.486 Y87.092 E12.46374
G1 X146.013 Y88.872 E12.52548
G1 X146.012 Y131.317 E13.93721
G1 X145.57 Y133.116 E13.99882
G1 X144.57 Y135.042 E14.071
G1 X143.093 Y136.422 E14.13823
G1 X141.169 Y137.57 E14.21275
G1 X139.526 Y137.84 E14.26813
G1 X80.581 Y137.91 E16.22865
G0 F6000 X80.628 Y137.51
G1 F1200 X78.924 Y137.091 E16.28701
G1 X77.101 Y136.145 E16.35532
G1 X75.797 Y134.749 E16.41886
G1 X74.711 Y132.929 E16.48935
G1 X74.453 Y131.359 E16.54227
G1 X74.387 Y89.249 E17.94285
G1 X74.704 Y87.738 E17.99421
G1 X75.423 Y86.264 E18.04875
G1 X76.26 Y84.959 E18.10032
G1 X77.721 Y83.791 E18.16253
G1 X78.819 Y83.102 E18.20564
G1 X80.923 Y82.489 E18.27853
G1 X138.984 Y82.533 E20.20965
G1 X140.069 Y82.695 E20.24614
G1 X142.039 Y83.559 E20.31768
G1 X143.308 Y84.598 E20.37223
G1 X144.163 Y85.478 E20.41304
G1 X145.113 Y87.243 E20.47971
G1 X145.613 Y88.932 E20.5383
G1 X145.612 Y131.27 E21.94646
G1 X145.193 Y132.974 E22.00483
G1 X144.247 Y134.797 E22.07314
G1 X142.851 Y136.101 E22.13668
G1 X141.031 Y137.187 E22.20717
G1 X139.461 Y137.445 E22.26009
G1 X80.628 Y137.51 E24.21688
G0 F6000 X80.674 Y137.11
G1 F1200 X79.067 Y136.715 E24.27192
G1 X77.346 Y135.822 E24.33641
G1 X76.118 Y134.507 E24.39625
G1 X75.094 Y132.791 E24.46271
G1 X74.848 Y131.294 E24.51317
G1 X74.787 Y89.288 E25.9103
G1 X75.084 Y87.872 E25.95842
G1 X75.76 Y86.48 E26.00989
G1 X76.562 Y85.229 E26.05931
G1 X77.934 Y84.13 E26.11778
G1 X78.986 Y83.47 E26.15909
G1 X80.98 Y82.889 E26.22817
G1 X138.925 Y82.929 E28.15542
G1 X139.959 Y83.083 E28.19019
G1 X141.827 Y83.903 E28.25805
G1 X143.021 Y84.877 E28.3093
G1 X143.838 Y85.718 E28.34829
G1 X144.74 Y87.394 E28.4116
G1 X145.213 Y88.992 E28.46703
G1 X145.212 Y131.224 E29.87167
G1 X144.817 Y132.831 E29.92671
G1 X143.924 Y134.552 E29.9912
G1 X142.609 Y135.78 E30.05104
G1 X140.893 Y136.804 E30.1175
G1 X139.396 Y137.05 E30.16796
G1 X80.674 Y137.11 E32.12107
G0 F6000 X80.72 Y136.71
G1 F1200 X79.21 Y136.339 E32.17278
G1 X77.591 Y135.499 E32.23345
G1 X76.439 Y134.265 E32.28959
G1 X75.477 Y132.653 E32.35203
G1 X75.243 Y131.229 E32.40003
G1 X75.187 Y89.327 E33.7937
G1 X75.465 Y88.004 E33.83866
G1 X76.097 Y86.696 E33.88698
G1 X76.864 Y85.499 E33.93426
G1 X78.147 Y84.469 E33.98898
G1 X79.153 Y83.838 E34.02848
G1 X81.037 Y83.289 E34.09375
G1 X138.866 Y83.325 E36.01715
G1 X139.849 Y83.471 E36.0502
G1 X141.615 Y84.247 E36.11436
G1 X142.768 Y85.187 E36.16384
G1 X143.513 Y85.957 E36.19948
G1 X144.366 Y87.543 E36.25937
G1 X144.813 Y89.052 E36.31172
G1 X144.812 Y131.178 E37.71283
G1 X144.441 Y132.688 E37.76455
G1 X143.601 Y134.307 E37.82521
G1 X142.367 Y135.459 E37.88136
G1 X140.755 Y136.421 E37.9438
G1 X139.331 Y136.655 E37.9918
G1 X80.72 Y136.71 E39.94121
G0 F6000 X80.767 Y136.31
G1 F1200 X79.352 Y135.962 E39.98967
G1 X77.836 Y135.176 E40.04647
G1 X76.76 Y134.023 E40.09892
G1 X75.86 Y132.515 E40.15733
G1 X75.638 Y131.164 E40.20287
G1 X75.587 Y89.366 E41.59308
G1 X75.846 Y88.135 E41.63492
G1 X76.457 Y86.87 E41.68164
G1 X77.163 Y85.772 E41.72506
G1 X78.36 Y84.808 E41.77618
G1 X79.32 Y84.206 E41.81387
G1 X81.094 Y83.689 E41.87532
G1 X138.807 Y83.721 E43.79487
G1 X139.739 Y83.859 E43.8262
G1 X141.403 Y84.591 E43.88667
G1 X142.48 Y85.465 E43.9328
G1 X143.187 Y86.196 E43.96662
G1 X143.993 Y87.694 E44.0232
G1 X144.413 Y89.112 E44.07239
G1 X144.412 Y131.131 E45.46995
G1 X144.064 Y132.546 E45.51841
G1 X143.278 Y134.062 E45.57521
G1 X142.125 Y135.138 E45.62766
G1 X140.617 Y136.038 E45.68607
G1 X139.266 Y136.26 E45.73161
G1 X80.767 Y136.31 E47.67729
G0 F6000 X80.813 Y135.91
G1 F1200 X79.495 Y135.586 E47.72244
G1 X78.081 Y134.853 E47.77541
G1 X77.081 Y133.781 E47.82417
G1 X76.243 Y132.377 E47.87855
G1 X76.033 Y131.099 E47.92163
G1 X75.987 Y89.405 E49.30838
G1 X76.227 Y88.265 E49.34713
G1 X76.794 Y87.086 E49.39064
G1 X77.464 Y86.043 E49.43187
G1 X78.611 Y85.12 E49.48084
G1 X79.485 Y84.575 E49.51509
G1 X81.151 Y84.089 E49.57282
G1 X138.749 Y84.117 E51.48853
G1 X139.629 Y84.247 E51.51812
G1 X141.191 Y84.935 E51.57489
G1 X142.228 Y85.776 E51.6193
G1 X142.86 Y86.433 E51.64962
G1 X143.62 Y87.845 E51.70295
G1 X144.013 Y89.172 E51.74898
G1 X144.012 Y131.085 E53.14301
G1 X143.688 Y132.403 E53.18816
G1 X142.955 Y133.817 E53.24113
G1 X141.883 Y134.817 E53.28989
G1 X140.479 Y135.655 E53.34427
G1 X139.201 Y135.865 E53.38735
G1 X80.813 Y135.91 E55.32934
G0 F6000 X80.859 Y135.51
G1 F1200 X79.638 Y135.21 E55.37116
G1 X78.328 Y134.531 E55.42024
G1 X77.4 Y133.536 E55.46549
G1 X76.626 Y132.239 E55.51573
G1 X76.428 Y131.034 E55.55634
G1 X76.387 Y89.444 E56.93963
G1 X76.607 Y88.398 E56.97518
G1 X77.131 Y87.302 E57.01559
G1 X77.765 Y86.314 E57.05463
G1 X78.862 Y85.432 E57.10145
G1 X79.65 Y84.943 E57.13229
G1 X81.208 Y84.489 E57.18627
G1 X138.691 Y84.513 E59.09816
G1 X139.519 Y84.635 E59.126
G1 X140.979 Y85.279 E59.17907
G1 X141.976 Y86.087 E59.22176
G1 X142.533 Y86.67 E59.24857
G1 X143.247 Y87.996 E59.29866
G1 X143.613 Y89.232 E59.34154
G1 X143.612 Y131.039 E60.73204
G1 X143.312 Y132.26 E60.77386
G1 X142.633 Y133.57 E60.82294
G1 X141.638 Y134.498 E60.86819
G1 X140.341 Y135.272 E60.91843
G1 X139.136 Y135.47 E60.95904
G1 X80.859 Y135.51 E62.89734
G0 F6000 X80.905 Y135.11
G1 F1200 X79.781 Y134.834 E62.93584
G1 X78.575 Y134.209 E62.98102
G1 X77.722 Y133.294 E63.02262
G1 X77.009 Y132.099 E63.06891
G1 X76.823 Y130.969 E63.107
G1 X76.787 Y89.483 E64.48683
G1 X76.987 Y88.53 E64.51921
G1 X77.492 Y87.475 E64.55812
G1 X78.066 Y86.586 E64.59331
G1 X79.113 Y85.744 E64.638
G1 X79.813 Y85.312 E64.66536
G1 X81.265 Y84.889 E64.71566
G1 X138.633 Y84.909 E66.62373
G1 X139.407 Y85.023 E66.64975
G1 X140.768 Y85.624 E66.69923
G1 X141.724 Y86.398 E66.74014
G1 X142.206 Y86.906 E66.76344
G1 X142.874 Y88.147 E66.81031
G1 X143.213 Y89.292 E66.85003
G1 X143.212 Y130.993 E68.23701
G1 X142.936 Y132.117 E68.2755
G1 X142.311 Y133.323 E68.32068
G1 X141.396 Y134.176 E68.36229
G1 X140.201 Y134.889 E68.40857
G1 X139.071 Y135.075 E68.44666
G1 X80.905 Y135.11 E70.38127
G0 F6000 X80.952 Y134.71
G1 F1200 X79.923 Y134.457 E70.41651
G1 X78.822 Y133.887 E70.45775
G1 X78.044 Y133.052 E70.49571
G1 X77.392 Y131.959 E70.53804
G1 X77.218 Y130.904 E70.5736
G1 X77.187 Y89.522 E71.94997
G1 X77.368 Y88.661 E71.97924
G1 X77.828 Y87.692 E72.01491
G1 X78.366 Y86.858 E72.04792
G1 X79.364 Y86.056 E72.09051
G1 X79.977 Y85.681 E72.11441
G1 X81.322 Y85.289 E72.161
G1 X138.575 Y85.305 E74.06525
G1 X139.295 Y85.411 E74.08945
G1 X140.557 Y85.969 E74.13535
G1 X141.472 Y86.709 E74.17449
G1 X141.88 Y87.143 E74.1943
G1 X142.5 Y88.296 E74.23784
G1 X142.813 Y89.352 E74.27447
G1 X142.812 Y130.946 E75.65789
G1 X142.559 Y131.975 E75.69314
G1 X141.989 Y133.076 E75.73437
G1 X141.154 Y133.854 E75.77233
G1 X140.061 Y134.506 E75.81466
G1 X139.006 Y134.68 E75.85023
G1 X80.952 Y134.71 E77.78111
G0 F6000 X80.998 Y134.31
G1 F1200 X80.066 Y134.081 E77.81303
G1 X79.069 Y133.565 E77.85037
G1 X78.366 Y132.81 E77.88468
G1 X77.775 Y131.819 E77.92306
G1 X77.613 Y130.839 E77.9561
G1 X77.587 Y89.561 E79.32901
G1 X77.749 Y88.791 E79.35518
G1 X78.164 Y87.909 E79.3876
G1 X78.668 Y87.128 E79.41852
G1 X79.573 Y86.397 E79.45721
G1 X80.14 Y86.05 E79.47932
G1 X81.379 Y85.689 E79.52224
G1 X138.517 Y85.701 E81.42266
G1 X139.183 Y85.799 E81.44505
G1 X140.346 Y86.313 E81.48734
G1 X141.18 Y86.983 E81.52292
G1 X141.553 Y87.38 E81.54104
G1 X142.127 Y88.447 E81.58134
G1 X142.413 Y89.412 E81.61481
G1 X142.412 Y130.9 E82.99471
G1 X142.183 Y131.832 E83.02663
G1 X141.667 Y132.829 E83.06397
G1 X140.912 Y133.532 E83.09828
G1 X139.921 Y134.123 E83.13666
G1 X138.941 Y134.285 E83.16969
G1 X80.998 Y134.31 E85.09689
G0 F6000 X81.044 Y133.91
G1 F1200 X80.209 Y133.705 E85.12548
G1 X79.314 Y133.242 E85.159
G1 X78.69 Y132.571 E85.18947
G1 X78.158 Y131.679 E85.22402
G1 X78.008 Y130.774 E85.25453
G1 X77.987 Y89.6 E86.62398
G1 X78.13 Y88.919 E86.64713
G1 X78.5 Y88.126 E86.67623
G1 X78.97 Y87.398 E86.70505
G1 X79.782 Y86.738 E86.73986
G1 X80.303 Y86.419 E86.76017
G1 X81.436 Y86.089 E86.79942
G1 X138.459 Y86.097 E88.69602
G1 X139.071 Y86.187 E88.71659
G1 X140.137 Y86.658 E88.75535
G1 X140.888 Y87.257 E88.7873
G1 X141.226 Y87.617 E88.80373
G1 X141.754 Y88.598 E88.84078
G1 X142.013 Y89.472 E88.8711
G1 X142.012 Y130.854 E90.24747
G1 X141.807 Y131.689 E90.27607
G1 X141.344 Y132.584 E90.30958
G1 X140.673 Y133.208 E90.34006
G1 X139.781 Y133.74 E90.3746
G1 X138.876 Y133.89 E90.40512
G1 X81.044 Y133.91 E92.32862
G0 F6000 X81.09 Y133.51
G1 F1200 X80.352 Y133.329 E92.35389
G1 X79.559 Y132.919 E92.38358
G1 X79.014 Y132.332 E92.41022
G1 X78.541 Y131.539 E92.44093
G1 X78.403 Y130.708 E92.46895
G1 X78.387 Y89.639 E93.83491
G1 X78.511 Y89.05 E93.85493
G1 X78.863 Y88.295 E93.88264
G1 X79.271 Y87.669 E93.90749
G1 X79.991 Y87.079 E93.93845
G1 X80.466 Y86.788 E93.95698
G1 X81.493 Y86.489 E93.99255
G1 X138.401 Y86.493 E95.88532
G1 X138.959 Y86.575 E95.90408
G1 X139.928 Y87.003 E95.93931
G1 X140.596 Y87.531 E95.96763
G1 X140.899 Y87.854 E95.98236
G1 X141.381 Y88.749 E96.01617
G1 X141.613 Y89.532 E96.04334
G1 X141.612 Y130.808 E97.41618
G1 X141.431 Y131.546 E97.44145
G1 X141.021 Y132.339 E97.47115
G1 X140.434 Y132.884 E97.49779
G1 X139.641 Y133.357 E97.5285
G1 X138.81 Y133.495 E97.55652
G1 X81.09 Y133.51 E99.47629
G0 F6000 X81.14 Y133.11
G1 F1200 X80.491 Y132.951 E99.49852
G1 X79.804 Y132.596 E99.52424
G1 X79.338 Y132.093 E99.54704
G1 X78.924 Y131.399 E99.57392
G1 X78.798 Y130.642 E99.59944
G1 X78.787 Y89.678 E100.96191
G1 X78.892 Y89.177 E100.97894
G1 X79.198 Y88.513 E101.00325
G1 X79.572 Y87.939 E101.02604
G1 X80.2 Y87.42 E101.05314
G1 X80.629 Y87.157 E101.06987
G1 X81.55 Y86.889 E101.10178
G1 X138.343 Y86.889 E102.99072
G1 X138.847 Y86.963 E103.00766
G1 X139.72 Y87.349 E103.03941
G1 X140.348 Y87.845 E103.06603
G1 X140.571 Y88.089 E103.07702
G1 X141.008 Y88.9 E103.10766
G1 X141.213 Y89.592 E103.13167
G1 X141.212 Y130.758 E104.50085
G1 X141.053 Y131.407 E104.52308
G1 X140.698 Y132.094 E104.5488
G1 X140.195 Y132.56 E104.5716
G1 X139.501 Y132.974 E104.59848
G1 X138.744 Y133.1 E104.62401
G1 X81.14 Y133.11 E106.53992
G0 F6000 X81.19 Y132.71
G1 F1200 X80.63 Y132.573 E106.5591
G1 X80.05 Y132.273 E106.58082
G1 X79.662 Y131.854 E106.59981
G1 X79.307 Y131.259 E106.62285
G1 X79.193 Y130.576 E106.64589
G1 X79.187 Y89.717 E108.00486
G1 X79.274 Y89.304 E108.0189
G1 X79.533 Y88.732 E108.03978
G1 X79.875 Y88.208 E108.0606
G1 X80.455 Y87.728 E108.08564
G1 X80.791 Y87.527 E108.09866
G1 X81.607 Y87.289 E108.12693
G1 X138.343 Y87.289 E110.01398
G1 X138.735 Y87.351 E110.02718
G1 X139.513 Y87.694 E110.05546
G1 X140.053 Y88.115 E110.07823
G1 X140.242 Y88.322 E110.08755
G1 X140.635 Y89.051 E110.1151
G1 X140.813 Y89.652 E110.13595
G1 X140.812 Y130.708 E111.50147
G1 X140.675 Y131.268 E111.52065
G1 X140.375 Y131.848 E111.54237
G1 X139.956 Y132.236 E111.56136
G1 X139.361 Y132.591 E111.58441
G1 X138.678 Y132.705 E111.60744
G1 X81.19 Y132.71 E113.51949
G0 F6000 X81.24 Y132.31
G1 F1200 X80.769 Y132.195 E113.53562
G1 X80.296 Y131.95 E113.55334
G1 X79.983 Y131.612 E113.56866
G1 X79.69 Y131.121 E113.58768
G1 X79.588 Y130.51 E113.60828
G1 X79.587 Y89.756 E114.96376
G1 X79.655 Y89.432 E114.97477
G1 X79.868 Y88.951 E114.99227
G1 X80.178 Y88.477 E115.01111
G1 X80.71 Y88.036 E115.03409
G1 X80.951 Y87.897 E115.04335
G1 X81.664 Y87.689 E115.06805
G1 X138.343 Y87.689 E116.9532
G1 X138.622 Y87.738 E116.96262
G1 X139.307 Y88.04 E116.98752
G1 X139.807 Y88.43 E117.00861
G1 X139.913 Y88.555 E117.01406
G1 X140.262 Y89.202 E117.03851
G1 X140.413 Y89.712 E117.0562
G1 X140.412 Y130.658 E118.41807
G1 X140.297 Y131.129 E118.4342
G1 X140.052 Y131.602 E118.45192
G1 X139.714 Y131.915 E118.46724
G1 X139.223 Y132.208 E118.48625
G1 X138.612 Y132.31 E118.50686
G1 X81.24 Y132.31 E120.41506
G0 F6000 X81.29 Y131.91
G1 F1200 X138.612 Y131.91 E122.3216
G1 X139.085 Y131.825 E122.33758
G1 X139.472 Y131.594 E122.35257
G1 X139.729 Y131.356 E122.36422
G1 X139.919 Y130.99 E122.37794
G1 X140.012 Y130.608 E122.39101
G1 X140.013 Y89.772 E123.74922
G1 X139.889 Y89.353 E123.76376
G1 X139.561 Y88.745 E123.78673
G1 X139.101 Y88.386 E123.80614
G1 X138.504 Y88.123 E123.82784
G1 X138.343 Y88.089 E123.83331
G1 X81.721 Y88.089 E125.71657
G1 X81.108 Y88.268 E125.73781
G1 X80.965 Y88.344 E125.74319
G1 X80.48 Y88.746 E125.76415
G1 X80.234 Y89.113 E125.77884
G1 X80.021 Y89.594 E125.79634
G1 X79.987 Y89.756 E125.80184
G1 X79.988 Y130.51 E127.15733
G1 X80.073 Y130.983 E127.17331
G1 X80.304 Y131.37 E127.1883
G1 X80.542 Y131.627 E127.19995
G1 X80.908 Y131.817 E127.21367
G1 X81.29 Y131.91 E127.22674
G0 F6000 X81.339 Y131.51
G1 F1200 X138.612 Y131.51 E129.13165
G1 X138.94 Y131.445 E129.14277
G1 X139.267 Y131.25 E129.15544
G1 X139.405 Y131.111 E129.16195
G1 X139.542 Y130.848 E129.17181
G1 X139.612 Y130.559 E129.1817
G1 X139.613 Y89.831 E130.53632
G1 X139.517 Y89.505 E130.54763
G1 X139.248 Y89.008 E130.56642
G1 X138.895 Y88.732 E130.58133
G1 X138.343 Y88.489 E130.60138
G1 X81.778 Y88.489 E132.48274
G1 X81.22 Y88.652 E132.50208
G1 X80.78 Y89.017 E132.52109
G1 X80.6 Y89.275 E132.53156
G1 X80.387 Y89.756 E132.54905
G1 X80.388 Y130.51 E133.90454
G1 X80.453 Y130.838 E133.91566
G1 X80.648 Y131.165 E133.92832
G1 X80.787 Y131.303 E133.93484
G1 X81.05 Y131.44 E133.9447
G1 X81.339 Y131.51 E133.95459
G0 F6000 X81.388 Y130.71
G1 F1200 X138.612 Y130.71 E135.85787
G1 X138.773 Y130.629 E135.86386
G1 X138.812 Y130.51 E135.86803
G1 X138.813 Y89.887 E137.21915
G1 X138.62 Y89.531 E137.23262
G1 X138.525 Y89.443 E137.23693
G1 X138.175 Y89.289 E137.24965
G1 X81.892 Y89.289 E139.12163
G1 X81.604 Y89.373 E139.13161
G1 X81.332 Y89.599 E139.14337
G1 X81.187 Y89.926 E139.15526
G1 X81.188 Y130.51 E140.50509
G1 X81.269 Y130.671 E140.51109
G1 X81.388 Y130.71 E140.51525
G0 F6000 X81.388 Y131.11
G1 F1200 X81.144 Y131.051 E140.5236
G1 X80.992 Y130.96 E140.5295
