;FLAVOR:Marlin
;TIME:1826
;Filament used: 0.859138m
;Layer height: 0.2
;MINX:105.24
;MINY:79.019
;MINZ:0.2
;MAXX:142.916
;MAXY:124.936
;MAXZ:6.2
;TARGET_MACHINE.NAME:Creality Ender-3 Pro
;POSTPROCESSED
;  [CreateThumbnail]
;  [CreateThumbnail]
;Generated with Cura_SteamEngine 5.9.0
;
;

;
;

M82 ;absolute extrusion mode
; Ender 3 Custom Start G-code
G92 E0 ; Reset Extruder
M190 S60.0 ; Start heating the bed, wait until target temperature reached
G1 Z5.0 F3000 ; Move Z Axis up a bit during heating to not damage bed
M104 S175 ; Start heating up the nozzle most of the way
M109 S200.0 ; Finish heating the nozzle
G1 Z2.0 F3000 ; Move Z Axis up little to prevent scratching of Heat Bed
G28 ; Home all axes
G1 X0.1 Y20 Z0.3 F5000.0 ; Move to start position
G1 X0.1 Y200.0 Z0.3 F1500.0 E15 ; Draw the first line
G1 X0.4 Y200.0 Z0.3 F5000.0 ; Move to side a little
G1 X0.4 Y20 Z0.3 F1500.0 E30 ; Draw the second line
G92 E0 ; Reset Extruder
G1 Z2.0 F3000 ; Move Z Axis up little to prevent scratching of Heat Bed
G1 X5 Y20 Z0.3 F5000.0 ; Move over to prevent blob squish
G92 E0
G92 E0
G1 F1500 E-6.5
;LAYER_COUNT:31
;LAYER:0
M107
M204 S500
G0 F6000 X117.169 Y93.406 Z0.2
;TYPE:SKIRT
G1 F1500 E0
G1 F600 X117.171 Y91.833 E0.05232
G1 X117.138 Y91.761 E0.05495
G1 X117.071 Y91.825 E0.05803
G1 X117.074 Y93.414 E0.11088
G1 X117.169 Y93.406 E0.11406
G0 F6000 X117.568 Y93.789
G1 F600 X117.571 Y91.761 E0.18151
G1 X117.496 Y91.562 E0.18858
G1 X117.394 Y91.445 E0.19374
G1 X117.235 Y91.356 E0.1998
G1 X117.001 Y91.368 E0.2076
G1 X116.764 Y91.536 E0.21726
G1 X116.671 Y91.737 E0.22463
G1 X116.675 Y93.936 E0.29776
G1 X117.124 Y93.809 E0.31328
G1 X117.568 Y93.789 E0.32807
G0 F6000 X116.462 Y94.412
G1 F600 X117.187 Y94.207 E0.35313
G1 X117.816 Y94.178 E0.37407
G1 X117.968 Y94.2 E0.37918
G1 X117.971 Y91.688 E0.46273
G1 X117.845 Y91.355 E0.47457
G1 X117.65 Y91.129 E0.4845
G1 X117.365 Y90.971 E0.49533
G1 X117.16 Y90.94 E0.50223
G1 X116.881 Y90.981 E0.51161
G1 X116.627 Y91.107 E0.52104
G1 X116.431 Y91.302 E0.53024
G1 X116.29 Y91.606 E0.54138
G1 X116.271 Y91.862 E0.54992
G1 X116.276 Y94.513 E0.63809
G1 X116.462 Y94.412 E0.64513
G0 F6000 X115.878 Y95.34
G1 F600 X116.087 Y95.121 E0.6552
G1 X116.571 Y94.797 E0.67457
G1 X117.25 Y94.605 E0.69804
G1 X117.834 Y94.578 E0.71749
G1 X118.367 Y94.728 E0.7359
G1 X118.371 Y91.63 E0.83894
G1 X118.276 Y91.307 E0.85014
G1 X118.176 Y91.125 E0.85705
G1 X117.927 Y90.837 E0.86971
G1 X117.758 Y90.71 E0.87674
G1 X117.479 Y90.583 E0.88694
G1 X117.161 Y90.536 E0.89763
G1 X116.761 Y90.594 E0.91107
G1 X116.39 Y90.779 E0.92486
G1 X116.118 Y91.049 E0.93761
G1 X116.004 Y91.227 E0.94464
G1 X115.895 Y91.519 E0.955
G1 X115.871 Y91.847 E0.96594
G1 X115.878 Y95.34 E1.08212
G0 F6000 X115.766 Y96.213
G1 F600 X115.953 Y95.842 E1.09594
G1 X116.349 Y95.426 E1.11504
G1 X116.739 Y95.165 E1.13065
G1 X117.313 Y95.003 E1.15049
G1 X117.79 Y94.981 E1.16637
G1 X118.363 Y95.142 E1.18617
G1 X118.766 Y95.359 E1.20139
G1 X118.771 Y91.572 E1.32735
G1 X118.648 Y91.155 E1.34181
G1 X118.505 Y90.895 E1.35167
G1 X118.201 Y90.543 E1.36714
G1 X117.963 Y90.364 E1.37705
G1 X117.593 Y90.195 E1.39058
G1 X117.176 Y90.134 E1.4046
G1 X116.897 Y90.155 E1.4139
G1 X116.65 Y90.209 E1.42231
G1 X116.382 Y90.308 E1.43181
G1 X116.137 Y90.466 E1.44151
G1 X115.807 Y90.794 E1.45698
G1 X115.643 Y91.049 E1.46707
G1 X115.5 Y91.434 E1.48073
G1 X115.471 Y91.832 E1.494
G1 X115.473 Y95.311 E1.60971
G1 X115.514 Y95.701 E1.62276
G1 X115.673 Y96.083 E1.63652
G1 X115.766 Y96.213 E1.64183
G0 F6000 X116.007 Y97
G1 F600 X116.023 Y96.749 E1.6502
G1 X116.135 Y96.361 E1.66363
G1 X116.284 Y96.074 E1.67439
G1 X116.606 Y95.735 E1.68994
G1 X116.91 Y95.532 E1.7021
G1 X117.375 Y95.401 E1.71816
G1 X117.746 Y95.384 E1.73052
G1 X118.212 Y95.515 E1.74662
G1 X118.533 Y95.688 E1.75874
G1 X118.86 Y96.031 E1.77451
G1 X118.965 Y96.191 E1.78087
G1 X119.121 Y95.758 E1.79618
G1 X119.167 Y95.384 E1.80871
G1 X119.171 Y91.697 E1.93134
G1 X119.14 Y91.409 E1.94098
G1 X119.021 Y91.003 E1.95505
G1 X118.842 Y90.678 E1.96739
G1 X118.668 Y90.444 E1.97709
G1 X118.465 Y90.241 E1.98664
G1 X118.168 Y90.018 E1.99899
G1 X117.842 Y89.869 E2.01091
G1 X117.553 Y89.785 E2.02092
G1 X117.191 Y89.732 E2.03309
G1 X116.837 Y89.758 E2.04489
G1 X116.54 Y89.823 E2.05501
G1 X116.202 Y89.948 E2.06699
G1 X115.893 Y90.147 E2.07922
G1 X115.67 Y90.341 E2.08905
G1 X115.486 Y90.554 E2.09841
G1 X115.283 Y90.869 E2.11087
G1 X115.156 Y91.211 E2.12301
G1 X115.094 Y91.498 E2.13277
G1 X115.071 Y91.817 E2.14341
G1 X115.073 Y95.334 E2.26039
G1 X115.107 Y95.659 E2.27126
G1 X115.181 Y95.942 E2.28098
G1 X115.322 Y96.28 E2.29317
G1 X115.54 Y96.586 E2.30566
G1 X115.747 Y96.803 E2.31564
G1 X116.007 Y97 E2.32649
G1 F1500 E-4.17351
G0 F6000 X117.695 Y97.671
G1 F1500 E2.32649
G1 F600 X117.372 Y97.715 E2.33733
G1 X117.204 Y97.659 E2.34322
G1 X116.904 Y97.361 E2.35728
G1 X116.791 Y96.971 E2.37079
G1 X116.903 Y96.583 E2.38422
G1 X117.186 Y96.285 E2.39789
G1 X117.591 Y96.171 E2.41188
G1 X117.996 Y96.285 E2.42588
G1 X118.28 Y96.583 E2.43957
G1 X118.391 Y96.97 E2.45296
G1 X118.281 Y97.369 E2.46672
G1 X118.158 Y97.503 E2.47277
G1 X117.695 Y97.671 E2.48916
G1 F1500 E-4.01084
G0 F6000 X106.306 Y106.307
G1 F1500 E2.48916
G1 F600 X106.311 Y102.764 E2.607
G1 X106.389 Y102.47 E2.61711
G1 X106.29 Y101.804 E2.63951
G1 X106.245 Y94.014 E2.89861
G1 X105.842 Y93.304 E2.92576
G1 X105.5 Y92.476 E2.95556
G1 X105.24 Y90.254 E3.02997
G1 X105.245 Y86.582 E3.1521
G1 X106.017 Y84.246 E3.23393
G1 X107.069 Y82.516 E3.30127
G1 X108.732 Y80.789 E3.38101
G1 X111.447 Y79.351 E3.4832
G1 X113.255 Y79.081 E3.544
G1 X119.494 Y79.019 E3.75152
G1 X121.619 Y79.261 E3.82265
G1 X122.64 Y79.532 E3.85779
G1 X122.753 Y79.504 E3.86166
G1 X124.588 Y79.26 E3.92323
G1 X130.494 Y79.227 E4.11967
G1 X132.72 Y79.487 E4.19421
G1 X133.501 Y79.686 E4.22101
G1 X135.543 Y80.489 E4.29399
G1 X136.267 Y80.887 E4.32147
G1 X137.447 Y81.703 E4.36919
G1 X138.881 Y83.001 E4.43352
G1 X139.883 Y84.128 E4.48368
G1 X140.791 Y85.823 E4.54763
G1 X141.175 Y86.676 E4.57875
G1 X141.366 Y87.173 E4.59646
G1 X141.643 Y88.08 E4.628
G1 X141.973 Y90.043 E4.6942
G1 X142.026 Y91.008 E4.72635
G1 X142.026 Y102.059 E5.09391
G1 X141.981 Y102.308 E5.10232
G1 X142.314 Y103.182 E5.13343
G1 X142.511 Y103.829 E5.15592
G1 X142.867 Y105.943 E5.22723
G1 X142.916 Y106.852 E5.2575
G1 X142.916 Y117.987 E5.62786
G1 X142.45 Y119.883 E5.69279
G1 X141.397 Y121.911 E5.7688
G1 X139.836 Y123.37 E5.83986
G1 X137.813 Y124.577 E5.91821
G1 X136.033 Y124.864 E5.97818
G1 X125.27 Y124.934 E6.33617
G1 X124.932 Y124.891 E6.3475
G1 X124.698 Y124.912 E6.35531
G1 X114.25 Y124.936 E6.70282
G1 X112.354 Y124.47 E6.76775
G1 X110.326 Y123.417 E6.84376
G1 X108.864 Y121.853 E6.91496
G1 X107.738 Y119.964 E6.98811
G1 X107.636 Y119.681 E6.99811
G1 X107.363 Y117.929 E7.05709
G1 X107.311 Y110.067 E7.31858
G1 X106.908 Y109.357 E7.34574
G1 X106.566 Y108.529 E7.37553
G1 X106.306 Y106.307 E7.44994
G0 F6000 X106.706 Y106.308
G1 F600 X106.711 Y102.817 E7.56605
G1 X106.797 Y102.492 E7.57724
G1 X106.686 Y101.745 E7.60235
G1 X106.644 Y93.908 E7.86302
G1 X106.212 Y93.151 E7.89201
G1 X105.89 Y92.372 E7.92004
G1 X105.64 Y90.255 E7.99094
G1 X105.645 Y86.648 E8.11091
G1 X106.383 Y84.415 E8.18913
G1 X107.39 Y82.759 E8.2536
G1 X108.976 Y81.112 E8.32964
G1 X111.571 Y79.737 E8.42732
G1 X113.314 Y79.477 E8.48594
G1 X119.498 Y79.419 E8.69163
G1 X121.516 Y79.648 E8.75918
G1 X122.642 Y79.947 E8.79792
G1 X122.806 Y79.901 E8.80359
G1 X124.641 Y79.657 E8.86516
G1 X130.496 Y79.627 E9.0599
G1 X132.621 Y79.875 E9.13106
G1 X133.402 Y80.074 E9.15786
G1 X135.35 Y80.84 E9.22748
G1 X136.074 Y81.238 E9.25496
G1 X137.179 Y82 E9.29961
G1 X138.582 Y83.267 E9.36248
G1 X139.552 Y84.358 E9.41104
G1 X140.438 Y86.012 E9.47344
G1 X140.802 Y86.82 E9.50292
G1 X140.983 Y87.29 E9.51967
G1 X141.26 Y88.197 E9.55121
G1 X141.574 Y90.065 E9.61422
G1 X141.626 Y91.008 E9.64563
G1 X141.626 Y102.059 E10.01319
G1 X141.56 Y102.371 E10.02379
G1 X141.679 Y102.639 E10.03354
G1 X141.931 Y103.299 E10.05704
G1 X142.128 Y103.946 E10.07954
G1 X142.468 Y105.965 E10.14763
G1 X142.516 Y106.852 E10.17718
G1 X142.516 Y117.941 E10.546
G1 X142.074 Y119.74 E10.60762
G1 X141.074 Y121.666 E10.67979
G1 X139.597 Y123.046 E10.74703
G1 X137.673 Y124.194 E10.82154
G1 X136.03 Y124.464 E10.87692
G1 X125.267 Y124.534 E11.23491
G1 X124.941 Y124.488 E11.24586
G1 X124.697 Y124.512 E11.25401
G1 X114.296 Y124.536 E11.59995
G1 X112.497 Y124.094 E11.66157
G1 X110.571 Y123.094 E11.73375
G1 X109.188 Y121.614 E11.80112
G1 X108.082 Y119.759 E11.87295
G1 X108.031 Y119.618 E11.87794
G1 X107.763 Y117.926 E11.93492
G1 X107.71 Y109.961 E12.19984
G1 X107.278 Y109.204 E12.22883
G1 X106.956 Y108.425 E12.25686
G1 X106.706 Y106.308 E12.32776
G0 F6000 X107.106 Y106.309
G1 F600 X107.111 Y102.87 E12.44215
G1 X107.205 Y102.514 E12.45439
G1 X107.082 Y101.686 E12.48223
G1 X107.043 Y93.8 E12.74453
G1 X106.582 Y92.998 E12.77529
G1 X106.28 Y92.268 E12.80157
G1 X106.04 Y90.256 E12.86896
G1 X106.045 Y86.714 E12.98677
G1 X106.749 Y84.584 E13.06138
G1 X107.711 Y83.002 E13.12297
G1 X109.22 Y81.435 E13.19532
G1 X111.695 Y80.123 E13.28849
G1 X113.373 Y79.873 E13.34492
G1 X119.502 Y79.819 E13.54878
G1 X121.413 Y80.035 E13.61274
G1 X122.651 Y80.364 E13.65535
G1 X122.859 Y80.298 E13.66261
G1 X124.694 Y80.054 E13.72418
G1 X130.498 Y80.027 E13.91722
G1 X132.522 Y80.263 E13.98499
G1 X133.303 Y80.462 E14.0118
G1 X135.157 Y81.191 E14.07806
G1 X135.881 Y81.589 E14.10554
G1 X136.951 Y82.329 E14.14881
G1 X138.283 Y83.533 E14.20853
G1 X139.221 Y84.588 E14.25548
G1 X140.085 Y86.201 E14.31634
G1 X140.429 Y86.964 E14.34418
G1 X140.6 Y87.407 E14.35997
G1 X140.877 Y88.314 E14.39152
G1 X141.175 Y90.087 E14.45131
G1 X141.226 Y91.008 E14.48199
G1 X141.226 Y102.059 E14.84955
G1 X141.139 Y102.408 E14.86151
G1 X141.305 Y102.782 E14.87512
G1 X141.548 Y103.416 E14.89771
G1 X141.745 Y104.063 E14.9202
G1 X142.069 Y105.987 E14.98509
G1 X142.116 Y106.852 E15.01391
G1 X142.116 Y117.894 E15.38116
G1 X141.697 Y119.598 E15.43953
G1 X140.751 Y121.421 E15.50784
G1 X139.355 Y122.725 E15.57138
G1 X137.535 Y123.811 E15.64187
G1 X135.965 Y124.069 E15.69479
G1 X125.265 Y124.134 E16.05068
G1 X124.949 Y124.085 E16.06131
G1 X124.696 Y124.112 E16.06977
G1 X114.343 Y124.136 E16.41412
G1 X112.639 Y123.717 E16.47248
G1 X110.816 Y122.771 E16.54079
G1 X109.512 Y121.375 E16.60433
G1 X108.426 Y119.554 E16.67485
G1 X108.163 Y117.923 E16.7298
G1 X108.109 Y109.853 E16.99821
G1 X107.648 Y109.051 E17.02898
G1 X107.346 Y108.321 E17.05525
G1 X107.106 Y106.309 E17.12265
G0 F6000 X107.506 Y106.31
G1 F600 X107.511 Y102.871 E17.23703
G1 X107.615 Y102.547 E17.24835
G1 X107.482 Y101.684 E17.27739
G1 X107.442 Y93.692 E17.54321
G1 X106.929 Y92.799 E17.57746
G1 X106.671 Y92.167 E17.60017
G1 X106.44 Y90.257 E17.66416
G1 X106.445 Y86.78 E17.7798
G1 X107.115 Y84.753 E17.85081
G1 X108.032 Y83.245 E17.90951
G1 X109.464 Y81.758 E17.97817
G1 X111.819 Y80.509 E18.06683
G1 X113.432 Y80.269 E18.12107
G1 X119.505 Y80.219 E18.32307
G1 X121.31 Y80.422 E18.38348
G1 X122.667 Y80.783 E18.43018
G1 X122.912 Y80.695 E18.43884
G1 X124.747 Y80.451 E18.50041
G1 X130.5 Y80.427 E18.69176
G1 X132.423 Y80.651 E18.75615
G1 X133.204 Y80.85 E18.78296
G1 X134.964 Y81.542 E18.84586
G1 X135.688 Y81.94 E18.87334
G1 X136.683 Y82.626 E18.91353
G1 X137.984 Y83.799 E18.9718
G1 X138.89 Y84.818 E19.01715
G1 X139.732 Y86.39 E19.07646
G1 X140.056 Y87.109 E19.10269
G1 X140.217 Y87.524 E19.1175
G1 X140.494 Y88.431 E19.14904
G1 X140.776 Y90.109 E19.20563
G1 X140.826 Y91.008 E19.23558
G1 X140.826 Y102.011 E19.60154
G1 X140.718 Y102.446 E19.61645
G1 X140.939 Y102.944 E19.63457
G1 X141.165 Y103.533 E19.65555
G1 X141.362 Y104.18 E19.67805
G1 X141.67 Y106.009 E19.73973
G1 X141.716 Y106.852 E19.76781
G1 X141.716 Y117.848 E20.13354
G1 X141.321 Y119.455 E20.18858
G1 X140.428 Y121.176 E20.25307
G1 X139.113 Y122.404 E20.31291
G1 X137.397 Y123.428 E20.37938
G1 X135.9 Y123.674 E20.42984
G1 X125.263 Y123.734 E20.78363
G1 X124.962 Y123.681 E20.79379
G1 X124.695 Y123.712 E20.80273
G1 X114.389 Y123.736 E21.14551
G1 X112.782 Y123.341 E21.20055
G1 X111.061 Y122.448 E21.26504
G1 X109.833 Y121.133 E21.32488
G1 X108.809 Y119.417 E21.39135
G1 X108.563 Y117.92 E21.44181
G1 X108.508 Y109.745 E21.71371
G1 X107.995 Y108.852 E21.74797
G1 X107.737 Y108.22 E21.77067
G1 X107.506 Y106.31 E21.83466
G0 F6000 X107.906 Y106.311
G1 F600 X107.911 Y102.934 E21.94698
G1 X108.025 Y102.578 E21.95941
G1 X107.882 Y101.682 E21.98959
G1 X107.841 Y93.584 E22.25894
G1 X107.299 Y92.648 E22.29491
G1 X107.062 Y92.067 E22.31578
G1 X106.84 Y90.258 E22.3764
G1 X106.845 Y86.846 E22.48988
G1 X107.481 Y84.922 E22.55728
G1 X108.353 Y83.488 E22.6131
G1 X109.708 Y82.081 E22.67807
G1 X111.943 Y80.895 E22.76223
G1 X113.491 Y80.665 E22.81428
G1 X119.461 Y80.617 E23.01285
G1 X121.207 Y80.809 E23.07127
G1 X122.697 Y81.205 E23.12255
G1 X122.965 Y81.091 E23.13223
G1 X124.749 Y80.851 E23.19211
G1 X130.502 Y80.827 E23.38345
G1 X132.324 Y81.039 E23.44446
G1 X133.105 Y81.238 E23.47127
G1 X134.771 Y81.893 E23.53081
G1 X135.495 Y82.291 E23.55829
G1 X136.455 Y82.955 E23.59711
G1 X137.685 Y84.065 E23.65222
G1 X138.559 Y85.048 E23.69596
G1 X139.367 Y86.555 E23.75284
G1 X139.683 Y87.255 E23.77838
G1 X139.834 Y87.641 E23.79217
G1 X140.111 Y88.548 E23.82371
G1 X140.377 Y90.131 E23.8771
G1 X140.426 Y91.008 E23.90631
G1 X140.426 Y101.962 E24.27065
G1 X140.296 Y102.484 E24.28854
G1 X140.573 Y103.107 E24.31121
G1 X140.782 Y103.65 E24.33057
G1 X140.979 Y104.297 E24.35306
G1 X141.271 Y106.031 E24.41155
G1 X141.316 Y106.852 E24.43889
G1 X141.316 Y117.802 E24.80309
G1 X140.945 Y119.312 E24.85481
G1 X140.105 Y120.931 E24.91547
G1 X138.871 Y122.083 E24.97162
G1 X137.259 Y123.045 E25.03406
G1 X135.835 Y123.279 E25.08206
G1 X125.261 Y123.334 E25.43375
G1 X124.976 Y123.276 E25.44343
G1 X124.694 Y123.312 E25.45288
G1 X114.435 Y123.336 E25.7941
G1 X112.925 Y122.965 E25.84581
G1 X111.306 Y122.125 E25.90648
G1 X110.154 Y120.891 E25.96263
G1 X109.192 Y119.279 E26.02506
G1 X108.958 Y117.855 E26.07306
G1 X108.907 Y109.637 E26.3464
G1 X108.365 Y108.701 E26.38237
G1 X108.128 Y108.12 E26.40324
G1 X107.906 Y106.311 E26.46386
G0 F6000 X108.306 Y106.312
G1 F600 X108.311 Y102.997 E26.57412
G1 X108.436 Y102.608 E26.58771
G1 X108.282 Y101.68 E26.619
G1 X108.24 Y93.475 E26.8919
G1 X107.669 Y92.497 E26.92957
G1 X107.453 Y91.967 E26.9486
G1 X107.24 Y90.259 E27.00585
G1 X107.245 Y86.912 E27.11717
G1 X107.847 Y85.091 E27.18096
G1 X108.674 Y83.731 E27.2339
G1 X109.951 Y82.405 E27.29513
G1 X112.069 Y81.281 E27.37488
G1 X113.55 Y81.061 E27.42468
G1 X119.417 Y81.015 E27.61983
G1 X121.163 Y81.207 E27.67825
G1 X122.441 Y81.548 E27.72224
G1 X122.705 Y81.653 E27.73169
G1 X123.019 Y81.487 E27.7435
G1 X124.751 Y81.251 E27.80164
G1 X130.504 Y81.227 E27.99299
G1 X132.225 Y81.427 E28.05062
G1 X133.006 Y81.626 E28.07742
G1 X134.578 Y82.244 E28.1336
G1 X135.302 Y82.642 E28.16108
G1 X136.187 Y83.252 E28.19683
G1 X137.386 Y84.331 E28.25048
G1 X138.228 Y85.278 E28.29263
G1 X139.014 Y86.744 E28.34795
G1 X139.31 Y87.401 E28.37192
G1 X139.461 Y87.787 E28.38571
G1 X139.728 Y88.664 E28.4162
G1 X139.978 Y90.153 E28.46641
G1 X140.026 Y91.008 E28.4949
G1 X140.026 Y101.914 E28.85763
G1 X139.873 Y102.531 E28.87877
G1 X139.988 Y102.762 E28.88736
G1 X140.2 Y103.251 E28.90508
G1 X140.399 Y103.767 E28.92348
G1 X140.596 Y104.414 E28.94597
G1 X140.872 Y106.053 E29.00125
G1 X140.916 Y106.852 E29.02787
G1 X140.916 Y117.755 E29.3905
G1 X140.568 Y119.17 E29.43897
G1 X139.782 Y120.686 E29.49577
G1 X138.629 Y121.762 E29.54822
G1 X137.121 Y122.662 E29.60663
G1 X135.77 Y122.884 E29.65217
G1 X125.3 Y122.934 E30.0004
G1 X124.989 Y122.871 E30.01096
G1 X124.693 Y122.912 E30.0209
G1 X114.482 Y122.936 E30.36052
G1 X113.067 Y122.588 E30.40898
G1 X111.551 Y121.802 E30.46578
G1 X110.475 Y120.649 E30.51823
G1 X109.575 Y119.141 E30.57664
G1 X109.353 Y117.79 E30.62218
G1 X109.306 Y109.528 E30.89698
G1 X108.735 Y108.55 E30.93465
G1 X108.519 Y108.02 E30.95368
G1 X108.306 Y106.312 E31.01093
G0 F6000 X108.706 Y106.313
G1 F600 X108.711 Y103.06 E31.11913
G1 X108.847 Y102.637 E31.1339
G1 X108.682 Y101.678 E31.16627
G1 X108.639 Y93.365 E31.44277
